X:63
T:Jig,(slip). RDO.63
M:9/8
L:1/8
Q:3/8=120
S:Robert D. Owen MS,Indiana,1826.
R:.Slip Jig
O:Indiana,USA
A:New Harmony
Z:vmp.Chris Partington
K:G
G3d2c Bcd|G3d2cB2g|G3d2c Bcd|E2g fe^de3:|!
|:d2B (cd)e (dB)G|d2B cded2c|d2B cde dBG|E2g fe^de3:|!
|:g3b2g afd|e3g2e fdB|c3e2c dBG|E2g fe^de3|!
(gf)g b^ab =afd|e^de gfg f=dB|(cB)c e^de =dBG|E2g fe^de3:|

